assets/img/braze_icons/puzzle-piece-01.svg

<svg fill="none" height="24" viewBox="0 0 24 24" width="24" xmlns="http://www.w3.org/2000/svg"><path clip-rule="evenodd" d="m6.5 4.5c0-1.933 1.567-3.5 3.5-3.5s3.5 1.567 3.5 3.5v.5h.0343c.6698-.00001 1.2226-.00002 1.6752.03086.4693.03202.9034.10056 1.3212.27362.9801.40598 1.7588 1.18467 2.1648 2.16479.1731.41781.2416.85191.2736 1.32119.0146.2136.0223.44953.0264.70954h.5045c1.933 0 3.5 1.567 3.5 3.5s-1.567 3.5-3.5 3.5h-.5v.7413c0 .805 0 1.4693-.0442 2.0105-.0459.5621-.1445 1.0788-.3918 1.5642-.3835.7526-.9954 1.3645-1.748 1.748-.4854.2473-1.0021.3459-1.5642.3918-.5412.0442-1.2055.0442-2.0105.0442h-.7413c-.5523 0-1-.4477-1-1v-1.75c0-.6904-.5596-1.25-1.25-1.25-.69036 0-1.25.5596-1.25 1.25v1.75c0 .5523-.44771 1-1 1h-1.24132c-.80496 0-1.46932 0-2.01051-.0442-.56209-.0459-1.0788-.1445-1.56413-.3918-.75265-.3835-1.36457-.9954-1.74807-1.748-.24729-.4854-.34585-1.0021-.39178-1.5642-.044213-.5412-.044202-1.2055-.04419-2.0105v-1.7413c0-.5523.44772-1 1-1h1.5c.82843 0 1.5-.6716 1.5-1.5s-.67157-1.5-1.5-1.5h-1.5c-.55228 0-1-.4477-1-1v-.0343c-.000008-.66976-.000016-1.22263.03087-1.67524.03201-.46928.10055-.90338.27361-1.32119.40598-.98012 1.18467-1.75881 2.16479-2.16479.41781-.17306.85191-.2416 1.32119-.27362.45261-.03088 1.00548-.03087 1.67527-.03086h.03427z" fill="#801ed7" fill-rule="evenodd"/></svg>

<svg width="24" height="24" viewBox="0 0 24 24" fill="none" xmlns="http://www.w3.org/2000/svg">
<path fill-rule="evenodd" clip-rule="evenodd" d="M6.5 4.5C6.5 2.567 8.067 1 10 1C11.933 1 13.5 2.567 13.5 4.5V5L13.5343 5C14.2041 4.99999 14.7569 4.99998 15.2095 5.03086C15.6788 5.06288 16.1129 5.13142 16.5307 5.30448C17.5108 5.71046 18.2895 6.48915 18.6955 7.46927C18.8686 7.88708 18.9371 8.32118 18.9691 8.79046C18.9837 9.00406 18.9914 9.23999 18.9955 9.5H19.5C21.433 9.5 23 11.067 23 13C23 14.933 21.433 16.5 19.5 16.5H19V17.2413C19 18.0463 19 18.7106 18.9558 19.2518C18.9099 19.8139 18.8113 20.3306 18.564 20.816C18.1805 21.5686 17.5686 22.1805 16.816 22.564C16.3306 22.8113 15.8139 22.9099 15.2518 22.9558C14.7106 23 14.0463 23 13.2413 23H12.5C11.9477 23 11.5 22.5523 11.5 22V20.25C11.5 19.5596 10.9404 19 10.25 19C9.55964 19 9 19.5596 9 20.25V22C9 22.5523 8.55229 23 8 23H6.75868C5.95372 23 5.28936 23 4.74817 22.9558C4.18608 22.9099 3.66937 22.8113 3.18404 22.564C2.43139 22.1805 1.81947 21.5686 1.43597 20.816C1.18868 20.3306 1.09012 19.8139 1.04419 19.2518C0.999977 18.7106 0.999988 18.0463 1 17.2413L1 15.5C1 14.9477 1.44772 14.5 2 14.5H3.5C4.32843 14.5 5 13.8284 5 13C5 12.1716 4.32843 11.5 3.5 11.5H2C1.44772 11.5 1 11.0523 1 10.5L1 10.4657C0.999992 9.79594 0.999984 9.24307 1.03087 8.79046C1.06288 8.32118 1.13142 7.88708 1.30448 7.46927C1.71046 6.48915 2.48915 5.71046 3.46927 5.30448C3.88708 5.13142 4.32118 5.06288 4.79046 5.03086C5.24307 4.99998 5.79594 4.99999 6.46573 5L6.5 5L6.5 4.5Z" fill="#801ED7"/>
</svg>
